!!!COM:	Martini, Johannes
!!!CDT:	~1440///-~1497//
!!!OTL:	Quare fremuerunt gentes
!!!AGN:	Motet
!!!SCT:	Mar2082
!!!SCA:	Mar2082
!!!voices:	3
**kern	**kern	**kern
*staff3	*staff2	*staff1
*Ivox	*Ivox	*Ivox
*I"Bassus	*I"Tenor	*I"Superius
*I'B	*I'T	*I'S
*>[A,B,C,D,E,F,G,H,I,J,K,L,M]	*>[A,B,C,D,E,F,G,H,I,J,K,L,M]	*>[A,B,C,D,E,F,G,H,I,J,K,L,M]
*>A	*>A	*>A
*clefGv2	*clefGv2	*clefG2
*k[]	*k[]	*k[]
*M2/1	*M2/1	*M2/1
*met(C)	*met(C)	*met(C)
!!section: Et populi meditati
!!!OMD: Et populi meditati
=1-	=1-	=1-
!!LO:TX:Z=8:t=Choir 1
1c	1c	1cc
2A/	2e\	2cc\
2A/	2e\	2cc\
=2	=2	=2
1A	1e	1cc
2A/	2e\	2cc\
2A/	2e\	2cc\
=3	=3	=3
2A/	2e\	2cc\
2A/	2e\	2cc\
1A	1c	1cc
=4	=4	=4
1G	2.d\	2.b\
.	4c\	4a/
2G/	2d\	2b\
[2C/	[2e\	[2cc\
=5	=5	=5
4C/]	2e\]	2cc\]
4D/	.	.
4E/	4d\	4b\
4F/	4c\	4a/
2G/	2B\	2g/
[2F/	[2c\	[2a/
=6	=6	=6
2F/]	2c\]	2a/]
2G/	2B\	1g
1D	1A	.
.	.	2f#i/
=7	=7	=7
0dl	0Gl	0gl
=8||	=8||	=8||
*>B	*>B	*>B
!!section: Astiterunt reges terre
!!!OMD: Astiterunt reges terre
!!LO:TX:Z=8:t=Choir 2
1A	1c	1cc
2A/	2e\	2cc\
2A/	2e\	2cc\
=9	=9	=9
1c	1e	1cc
2G/	2d\	2b\
2A/	2c\	2a/
=10	=10	=10
1G	1d	1b
1A	1c	1a
=11	=11	=11
1A	1e	2r
.	.	2cc\
2A/	2e\	2cc\
2A/	2e\	2cc\
=12	=12	=12
1A	1e	1cc
2A/	2e\	2cc\
2A/	2e\	2cc\
=13	=13	=13
2A/	1e	1cc
2c\	.	.
1G	1d	1b
=14	=14	=14
2E/	2e\	2cc\
2D/	1f	1dd
2F/	.	.
2C/	2e\	[2cc\
=15	=15	=15
1G	1d	2cc\]
.	.	2b\
1C	1c	1cc
=16	=16	=16
1r	1r	1r
1c	1e	1cc
=17	=17	=17
2A/	2e\	2cc\
2A/	2e\	2cc\
2A/	2e\	2cc\
2A/	2e\	2cc\
=18	=18	=18
1A	1c	1cc
1A	1e	2r
.	.	2cc\
=19	=19	=19
2A/	2e\	2cc\
2A/	2e\	2cc\
1A	1e	1cc
=20	=20	=20
2D/	2.d\	2.b\
1G	.	.
.	4c\	4a/
.	2d\	2b\
[2C/	[2e\	[2cc\
=21	=21	=21
4C/]	2e\]	2cc\]
4D/	.	.
4E/	4d\	4b\
4F/	4c\	4a/
2G/	2B\	2g/
[2F/	[2c\	[2a/
=22	=22	=22
2F/]	2c\]	2a/]
2G/	2B\	1g
1D	1A	.
.	.	2f#i/
=23	=23	=23
0Gl	0Gl	0gl
=24||	=24||	=24||
*>C	*>C	*>C
!!LO:TX:Z=8:t=Choir 1
!!section: Dirumpamus vincula
!!!OMD: Dirumpamus vincula
1c	1e	1cc
2A/	2e\	2cc\
2A/	2e\	2cc\
=25	=25	=25
1A	1e	1cc
2A/	2e\	2cc\
2A/	2e\	2cc\
=26	=26	=26
1A	1e	1cc
2c\	2e\	2cc\
2B\	2f\	[2dd\
=27	=27	=27
2G/	2g\	2dd\]
2A/	2c\	1cc
1G	1d	.
.	.	2b\
=28	=28	=28
1C	1c	1cc
1r	1r	1r
=29	=29	=29
1c	1e	1cc
2A/	2e\	2cc\
2A/	2e\	2cc\
=30	=30	=30
2A/	2e\	2cc\
2A/	2e\	2cc\
1A	1e	1cc
=31	=31	=31
2A/	2e\	2cc\
2A/	2e\	2cc\
1A	1e	1cc
=32	=32	=32
1A	1c	1cc
2G/	2d\	2b\
2A/	[2c\	[2a/
=33	=33	=33
2F/	2c\]	2a/]
2G/	2B\	1g
1D	1A	.
.	.	2f#i/
=34	=34	=34
0dl	0Gl	0gl
=35||	=35||	=35||
*>D	*>D	*>D
!!LO:TX:Z=8:t=Choir 2
!!section: Qui habitat in celis
!!!OMD: Qui habitat in celis
1c	1c	1cc
2A/	2e\	2cc\
2A/	2e\	2cc\
=36	=36	=36
1A	1e	1cc
2A/	2e\	2cc\
2A/	2e\	2cc\
=37	=37	=37
1c	1e	1cc
1G	1d	1b
=38	=38	=38
2A/	1c	1a
2F/	.	.
2G/	2.B\	2.g/
4F/	.	.
4E/	4c\	4a/
=39	=39	=39
2D/	2d\	2b\
2C/	2e\	1cc
1G	1d	.
.	.	2b\
=40	=40	=40
1A	1c	1cc
1r	1r	1r
=41	=41	=41
1A	1e	1cc
2A/	2e\	2cc\
2A/	2e\	2cc\
=42	=42	=42
1A	1e	1cc
1c	1e	1cc
=43	=43	=43
2G/	2d\	2b\
2A/	1c	1a
2F/	.	.
2G/	2B\	[2g/
=44	=44	=44
1D	1A	2g/]
.	.	2f#i/
1Gl	1Gl	1gl
=45||	=45||	=45||
*>E	*>E	*>E
!!section: Tunc loquetur
!!!OMD: Tunc loquetur
!!LO:TX:Z=8:t=Choir 1
1c	1e	1cc
2A/	2e\	2cc\
2A/	2e\	2cc\
=46	=46	=46
1A	1e	1cc
2A/	2e\	2cc\
2A/	2e\	2cc\
=47	=47	=47
1c	1e	1cc
1G	1d	1b
=48	=48	=48
2c\	2e\	2cc\
1B	1f	1dd
2c\	2e\	[2cc\
=49	=49	=49
1G	1d	2cc\]
.	.	2b\
1C	1c	1cc
=50	=50	=50
1r	1r	1r
1c	1e	1cc
=51	=51	=51
1A	2e\	1cc
.	2e\	.
2A/	1e	2cc\
2A/	.	2cc\
=52	=52	=52
2A/	2e\	2cc\
2A/	2e\	2cc\
1A	[1c	1cc
=53	=53	=53
1A	2c\]	2a/
.	2e\	2cc\
2D/	2d\	2b\
[2F/	[2c\	[2a/
=54	=54	=54
2F/]	2c\]	2a/]
2G/	2B\	1g
1D	1A	.
.	.	2f#i/
=55	=55	=55
0dl	0Gl	0gl
=56||	=56||	=56||
*>F	*>F	*>F
!!LO:TX:Z=8:t=Choir 2
!!section: Ego autem
!!!OMD: Ego autem
1c	1c	1cc
2A/	2e\	2cc\
2A/	2e\	2cc\
=57	=57	=57
1A	1e	1cc
2A/	2e\	2cc\
2A/	2e\	2cc\
=58	=58	=58
2A/	2e\	2cc\
2A/	2e\	2cc\
1c	1e	1cc
=59	=59	=59
2G/	2d\	2b\
2A/	2c\	1a
1E	1B	.
.	.	2g#i/
=60	=60	=60
1A	1A	1a
1A	1e	2r
.	.	2cc\
=61	=61	=61
2A/	2e\	2cc\
2A/	2e\	2cc\
1A	1e	1cc
=62	=62	=62
1A	1e	1cc
2c\	2e\	2cc\
[2B-\	[2f\	[2dd\
=63	=63	=63
2B-\]	2f\]	2dd\]
2c\	2e\	1cc
1G	1d	.
.	.	2b\
=64	=64	=64
1C	1c	1cc
1r	1r	1r
=65	=65	=65
2c\	2e\	2cc\
2c\	2e\	2cc\
1A	1e	1cc
=66	=66	=66
1c	1e	1cc
2G/	2d\	2b\
2A/	[2c\	[2a/
=67	=67	=67
2F/	2c\]	2a/]
2G/	2B\	1g
1D	1A	.
.	.	2f#i/
=68	=68	=68
0Gl	0Gl	0gl
=69||	=69||	=69||
*>G	*>G	*>G
!!section: Dominus dixit ad me
!!!OMD: Dominus dixit ad me
!!LO:TX:Z=8:t=Choir 1
2c\	2e\	2cc\
2c\	2e\	2cc\
1A	1e	1cc
=70	=70	=70
2A/	2e\	2cc\
2A/	2e\	2cc\
1A	1e	1cc
=71	=71	=71
1A	1e	1cc
2A/	2e\	2cc\
2A/	2e\	2cc\
=72	=72	=72
2c\	2e\	2cc\
1B-	1f	1dd
2c\	2e\	[2cc\
=73	=73	=73
1G	1d	2cc\]
.	.	2b\
1C	1c	1cc
=74	=74	=74
1r	1r	1r
2c\	2e\	2cc\
2c\	2e\	2cc\
=75	=75	=75
2A/	2e\	2cc\
2A/	2e\	2cc\
1A	1e	1cc
=76	=76	=76
1A	1c	2a/
.	.	2cc\
2G/	2d\	2b\
2A/	[2c\	[2a/
=77	=77	=77
2F/	2c\]	2a/]
2G/	2B\	1g
1D	1A	.
.	.	2f#i/
=78	=78	=78
0dl	0Gl	0gl
=79||	=79||	=79||
*>H	*>H	*>H
!!section: Postula a me
!!!OMD: Postula a me
!!LO:TX:Z=8:t=Choir 2
2A/	2e\	2cc\
2A/	2e\	2cc\
2A/	2e\	2cc\
2A/	2e\	2cc\
=80	=80	=80
1A	1c	1cc
2A/	2e\	2cc\
2A/	2e\	2cc\
=81	=81	=81
2A/	2e\	2cc\
2A/	2e\	2cc\
1A	1e	1cc
=82	=82	=82
2A/	1e	1cc
2c\	.	.
1G	1d	1b
=83	=83	=83
2A/	1c	1a
2F/	.	.
2G/	2B\	2g/
2F/	2c\	2a/
=84	=84	=84
2D/	2d\	2a/
2C/	2e\	1cc
1G	1d	.
.	.	2b\
=85	=85	=85
1C	1c	1cc
1r	1r	1r
=86	=86	=86
1c	1e	1cc
2A/	2e\	2cc\
2A/	2e\	2cc\
=87	=87	=87
2A/	2e\	2cc\
2A/	2e\	2cc\
2A/	1e	1cc
2c\	.	.
=88	=88	=88
1G	1d	1b
1A	1c	2a/
.	.	2cc\
=89	=89	=89
2G/	1d	2b\
2D/	.	1a
2F/	2c\	.
2G/	2B\	[2g/
=90	=90	=90
1D	1A	2g/]
.	.	2f#i/
1Gl	1Gl	1gl
=91||	=91||	=91||
*>I	*>I	*>I
!!LO:TX:Z=8:t=Choir 1
!!section: Reges eos in virga
!!!OMD: Reges eos in virga
1c	1c	1cc
2A/	2e\	2cc\
2A/	2e\	2cc\
=92	=92	=92
2A/	1e	1cc
2c\	.	.
1G	1d	1b
=93	=93	=93
2c\	2e\	2cc\
1B-	1f	1dd
2c\	2e\	[2cc\
=94	=94	=94
1G	1d	2cc\]
.	.	2b\
1C	1c	1cc
=95	=95	=95
1r	1r	1r
1c	1e	1cc
=96	=96	=96
1A	1e	1cc
2A/	2e\	2cc\
2A/	2e\	2cc\
=97	=97	=97
2A/	2e\	2cc\
2A/	2e\	2cc\
1A	1e	1cc
=98	=98	=98
1A	1c	2a/
.	.	2cc\
2G/	2d\	2b\
2A/	[2c\	[2a/
=99	=99	=99
2F/	2c\]	2a/]
2G/	2B\	1g
1D	1A	.
.	.	2f#i/
=100	=100	=100
0dl	0Gl	0gl
=101||	=101||	=101||
*>J	*>J	*>J
!!section: Et nunc, reges
!!!OMD: Et nunc, reges
!!LO:TX:Z=8:t=Choir 2
1c	1e	1cc
1A	1e	1cc
=102	=102	=102
2A/	2e\	2cc\
2A/	2e\	2cc\
1A	1e	1cc
=103	=103	=103
2c\	2e\	2cc\
2.B-\	2.f\	1dd
4c\	4e\	.
2A/	2c\	[2cc\
=104	=104	=104
1G	1d	2cc\]
.	.	2b\
1C	1c	1cc
=105	=105	=105
1r	1r	1r
2c\	2e\	2cc\
2c\	2e\	2cc\
=106	=106	=106
2A/	2e\	2cc\
2A/	2e\	2cc\
1A	1c	1cc
=107	=107	=107
1G	1d	1b
1A	2c\	2a/
.	2e\	2cc\
=108	=108	=108
2D/	2d\	2b\
1F	1c	1a
2G/	2B\	[2g/
=109	=109	=109
1D	1A	2g/]
.	.	2f#i/
1Gl	1Gl	1gl
=110||	=110||	=110||
*>K	*>K	*>K
!!LO:TX:Z=8:t=Choir 1
!!section: Servite Domino
!!!OMD: Servite Domino
1c	1e	1cc
2A/	2e\	2cc\
2A/	2e\	2cc\
=111	=111	=111
2A/	2e\	2cc\
2A/	2e\	2cc\
1A	1e	1cc
=112	=112	=112
2c\	2e\	2cc\
1B	1f	1dd
2c\	2e\	[2cc\
=113	=113	=113
1G	1d	2cc\]
.	.	2b\
1C	1c	1cc
=114	=114	=114
1r	1r	1r
1c	1e	1cc
=115	=115	=115
2A/	2e\	2cc\
2A/	2e\	2cc\
1A	1e	1cc
=116	=116	=116
1A	1e	1cc
1A	1c	2a/
.	.	2cc\
=117	=117	=117
2G/	1d	2b\
2D/	.	1a
2F/	2c\	.
2G/	2B\	[2g/
=118	=118	=118
1D	1A	2g/]
.	.	2f#i/
1dl	1Gl	1gl
=119||	=119||	=119||
*>L	*>L	*>L
!!LO:TX:Z=8:t=Choir 2
!!section: Apprehendite disciplinam
!!!OMD: Apprehendite disciplinam
2c\	2e\	2cc\
2c\	2e\	2cc\
2A/	2e\	2cc\
2A/	2e\	2cc\
=120	=120	=120
1A	1c	1cc
2G/	2d\	2b\
2A/	2c\	[2a/
=121	=121	=121
1E	1B	2a/]
.	.	2g#i/
1A	1A	1a
=122	=122	=122
2A/	2e\	2r
2A/	2e\	1cc
1A	1e	.
.	.	2cc\
=123	=123	=123
1A	1e	1cc
2A/	2c\	2cc\
2G/	2d\	2b\
=124	=124	=124
2E/	2e\	2cc\
2D/	2f\	1dd
2G/	2g\	.
2A/	2c\	[2cc\
=125	=125	=125
1G	1d	2cc\]
.	.	2b\
1C	1c	1cc
=126	=126	=126
1r	1r	1r
2c\	2e\	2cc\
2c\	2e\	2cc\
=127	=127	=127
2A/	2e\	2cc\
2A/	2e\	2cc\
1A	1c	1cc
=128	=128	=128
1G	1d	1b
1A	2c\	2a/
.	2e\	2cc\
=129	=129	=129
2D/	2d\	2b\
1F	1c	1a
2G/	2B\	[2g/
=130	=130	=130
1D	1A	2g/]
.	.	2f#i/
1G	1G	1g
=131	=131	=131
1c	1c	1cc
1Al	1el	1ccl
=132||	=132||	=132||
*>M	*>M	*>M
!!LO:TX:Z=8:t=Choir 1
!!section: Cum exarserit
!!!OMD: Cum exarserit
2A/	2e\	2cc\
2A/	2e\	2cc\
1A	1e	1cc
=133	=133	=133
2c\	2e\	2cc\
2c\	2e\	2cc\
1G	1d	1b
=134	=134	=134
2c\	2e\	2cc\
2.B\	2.f\	1dd
4c\	4e\	.
2A/	2c\	[2cc\
=135	=135	=135
1G	1d	2cc\]
.	.	2b\
1C	1c	1cc
=136	=136	=136
1r	1r	1r
2c\	2e\	2cc\
2c\	2e\	2cc\
=137	=137	=137
2c\	2e\	2cc\
2c\	2e\	2cc\
2A/	1e	1cc
2c\	.	.
=138	=138	=138
1G	1d	1b
2A/	1c	1a
2F/	.	.
=139	=139	=139
2G/	2.B\	2.g/
4F/	.	.
4E/	4c\	4a/
2D/	2d\	2b\
2C/	[2e\	[2cc\
=140	=140	=140
1G	2e\]	2cc\]
.	2d\	1b
1A	1c	.
.	.	2a/
=141	=141	=141
0El	0Bl	0bl
==	==	==
*-	*-	*-
!!!RDF**kern: l=long note in original notation
!!!RDF**kern: i=editorial accidental
!!!ENC:	Chris Gage 03-06-2014
!!!END:	2014/10/09/
!!!EED:	Jesse Rodin
!!!EEV:	2014/10/23/
!!!ONB:	Translated from MusicXML and edited on 2014/10/23/ by Craig Sapp
!!muse2ps: C^@{COM}^i2I150v85,85,150c240
